X:1
T:Title
%%score { ( 1 3 ) | 2 }
L:1/8
Q:1/4=100
M:9/8
K:Ab
V:1 treble nm="Grand Piano"
V:3 treble 
V:2 bass 
V:1
 [CE][DF][CE] | [CE]3 [CA]2 [CA] [EA][EB][Ec] | [FB]3 [DF]3 [Fd][Fc][DFB] | %3
w: J.~J.~Jelley * *|||
 [CEA]3 [CA]2 [CA] [EA][EB][Ec] | [EB]6 [Ac][Ad][A=d] | [Ae]3 [Ec]2 [CEA] [CEA][B,EB][Ec] | %6
w: |||
 [Fd]3 [DF]3 [Fd][Fc][FB] | A3 E2 E dcB |[M:3/4] [A,CA]6 |[M:3/8] z Bc |[M:9/8] [Fd]6 z3 | %11
w: |||||
 [Ec]6 z3 | G3 .G3 z3 |[M:21/16] E3/2-E3/2-E3/2- E3 z3 |[M:9/8] A,A,A, [Ec]2 [Ec] A[GB][_Gc] | %15
w: ||||
 [Fd]6 z3 | A3 .E3 z3 |[M:3/4] A-[CA-] [CA-] [CA]3 |] %18
w: |||
V:2
 [A,,A,][A,,A,][A,,A,] | [A,,A,]3 [A,,E,]2 [A,,E,] [C,A,][B,,G,][A,,A,] | %2
 [D,A,]3 [D,A,]3 [D,A,][D,A,]D, | A,,3 [A,,A,]2 [A,,A,] [C,A,][B,,G,][A,,A,] | %4
 [E,G,]6 [A,,A,][A,,B,][A,,_C] | [A,,C]3 [A,,A,]2 A,, A,,A,,[A,,A,] | %6
 [D,A,]3 [D,A,]3 [D,A,][D,A,][D,D] | [E,CE]3 [E,A,C]2 [E,A,C] [E,B,E][E,A,E][E,G,D] |[M:3/4] A,,6 | %9
[M:3/8][K:treble] AG_G |[M:9/8][K:bass] [D,A,]D,D, D,2 [D,A,] [D,A,][D,A,][D,A,] | %11
 [A,,A,]A,,A,, A,,3 z3 | [B,,B,][B,,B,][B,,B,] [B,,B,][B,,B,][B,,G,] [B,,B,][B,,B,][B,,A,] | %13
[M:21/16] [E,G,][E,G,]/-[E,G,]/[E,A,][E,B,]3/2- [E,B,]3 z =D/-D/_D | %14
[M:9/8] A,,A,,A,, [A,,A,][A,,A,][A,,A,] [C,A,][B,,E,][A,,A,] | [D,A,]D,D, D,3 z3 | %16
 [E,C]E,E, [E,A,C][E,A,][E,A,C] [E,B,E][E,A,E][E,G,D] |[M:3/4] [A,,A,][A,,A,] [A,,A,] [A,,A,]3 |] %18
V:3
 x3 | x9 | x9 | x9 | x9 | x9 | x9 | x9 |[M:3/4] x6 |[M:3/8] x3 | %10
[M:9/8] z A,A, A,2 [Fd] [DF][DF][Fd] | z A,A, A,3 cBA | EEE EE[EB] [=DA][DG][DF] | %13
[M:21/16] z B,/-B,/CD3/2- D3 EF/-F/G |[M:9/8] [CA]3 z3 z3 | z A,A, A,3 dcB | z CC z CE dcB | %17
[M:3/4] .C2 z2 z2 |] %18

